static/fa/svgs/regular/money-bill-1.svg

<svg xmlns="http://www.w3.org/2000/svg" viewBox="0 0 576 512"><!--! Font Awesome Free 6.1.1 by @fontawesome - https://fontawesome.com License - https://fontawesome.com/license/free (Icons: CC BY 4.0, Fonts: SIL OFL 1.1, Code: MIT License) Copyright 2022 Fonticons, Inc.--><path d="M400 256c0 61.9-50.1 112-112 112s-112-50.1-112-112 50.1-112 112-112 112 50.1 112 112zm-128-32v64h-8c-8.8 0-16 7.2-16 16s7.2 16 16 16h48c8.8 0 16-7.2 16-16s-7.2-16-16-16h-8v-80c0-8.8-7.2-16-16-16h-16c-8.8 0-16 7.2-16 16s7.2 16 16 16zM0 128c0-35.35 28.65-64 64-64h448c35.3 0 64 28.65 64 64v256c0 35.3-28.7 64-64 64H64c-35.35 0-64-28.7-64-64V128zm48 48v160c35.35 0 64 28.7 64 64h352c0-35.3 28.7-64 64-64V176c-35.3 0-64-28.7-64-64H112c0 35.3-28.65 64-64 64z"/></svg>

<svg xmlns="http://www.w3.org/2000/svg" viewBox="0 0 576 512"><!--! Font Awesome Free 6.1.1 by @fontawesome - https://fontawesome.com License - https://fontawesome.com/license/free (Icons: CC BY 4.0, Fonts: SIL OFL 1.1, Code: MIT License) Copyright 2022 Fonticons, Inc. --><path d="M400 256C400 317.9 349.9 368 288 368C226.1 368 176 317.9 176 256C176 194.1 226.1 144 288 144C349.9 144 400 194.1 400 256zM272 224V288H264C255.2 288 248 295.2 248 304C248 312.8 255.2 320 264 320H312C320.8 320 328 312.8 328 304C328 295.2 320.8 288 312 288H304V208C304 199.2 296.8 192 288 192H272C263.2 192 256 199.2 256 208C256 216.8 263.2 224 272 224zM0 128C0 92.65 28.65 64 64 64H512C547.3 64 576 92.65 576 128V384C576 419.3 547.3 448 512 448H64C28.65 448 0 419.3 0 384V128zM48 176V336C83.35 336 112 364.7 112 400H464C464 364.7 492.7 336 528 336V176C492.7 176 464 147.3 464 112H112C112 147.3 83.35 176 48 176z"/></svg>
